!!!OTL: Wolia jiejiao ding bainian
!!!ARE: Asia, China,ˇGuangxi, Yishan
!! II, 543
!!!SCT: C1529
!!!YEM: Copyright 1995, estate of Helmut Schaffrath.
**kern
*ICvox
*Ivox
!! Mixed meters:  2/4; 1/4
*M1/4
*k[f#c#]
*D:
{8dd
8ff#
8ff#
8ee
=1
16ff#
16ff#
16dd
16ff#
16ee
16ff#
16ee
16dd
=2
16dd
16ff#
16ff#
16ee
8dd
16ee
16dd
=3
4b}
=4
*M2/4
{8b
16b
16dd
16ee
16dd
8b
=5
16b
16dd
16a
16b
4dd
=6
8ee
16ee
16dd
8b
16b
16a
=7
16ee
16ee
16ee
16dd
16b
16dd
8a
=8
8b
16dd
16b
[4a
=9
2a]}
=10
{8ff#
16ff#
16ee
8ff#
8ee
=11
16ff#
16ee
8dd
8ff#
8ee
=12
16ff#
16ff#
16dd
16ee
8.ee
16ff#
=13
16dd
16ff#
16ff#
16ee
8dd
16ee
16dd
=14
*M1/4
4b}
=15
*M2/4
{8ff#
8ff#
8ee
8dd
=16
16b
16dd
16a
16b
4dd
=17
16ee
16dd
16b
16dd
8a
8a
=18
16ee
16ee
16ee
16dd
16b
16dd
8a
=19
8b
16dd
16b
[4a
=20
2a]}
==
!!!AGN: Xiaodiao, Qingmaluozi diao. NannÅ qing
!!!AMT: irregular
!!!AIN: vox
!!!EED: Helmut Schaffrath
!!!EEV: 1.0
*-
!!!ONB: Tied note syntax fixed by Craig Sapp, 2004/05/03/
